images/icon_bluesky.svg

<svg width="172" height="151" xmlns="http://www.w3.org/2000/svg" xml:space="preserve" style="fill-rule:evenodd;clip-rule:evenodd;stroke-linejoin:round;stroke-miterlimit:2"><path d="M135.72 44.03C202.216 93.951 273.74 195.17 300 249.49c26.262-54.316 97.782-155.54 164.28-205.46C512.26 8.009 590-19.862 590 68.825c0 17.712-10.155 148.79-16.111 170.07-20.703 73.984-96.144 92.854-163.25 81.433 117.3 19.964 147.14 86.092 82.697 152.22-122.39 125.59-175.91-31.511-189.63-71.766-2.514-7.38-3.69-10.832-3.708-7.896-.017-2.936-1.193.516-3.707 7.896-13.714 40.255-67.233 197.36-189.63 71.766-64.444-66.128-34.605-132.26 82.697-152.22-67.108 11.421-142.55-7.449-163.25-81.433-5.957-21.282-16.111-152.36-16.111-170.07 0-88.687 77.742-60.816 125.72-24.795z" style="fill:#f0f0f0;fill-rule:nonzero" transform="translate(-2.947 -2.846)scale(.29484)"/></svg>

<?xml version="1.0" encoding="UTF-8" standalone="no"?><!DOCTYPE svg PUBLIC "-//W3C//DTD SVG 1.1//EN" "http://www.w3.org/Graphics/SVG/1.1/DTD/svg11.dtd"><svg width="172px" height="151px" version="1.1" xmlns="http://www.w3.org/2000/svg" xmlns:xlink="http://www.w3.org/1999/xlink" xml:space="preserve" xmlns:serif="http://www.serif.com/" style="fill-rule:evenodd;clip-rule:evenodd;stroke-linejoin:round;stroke-miterlimit:2;"><g transform="matrix(1,0,0,1,-208.426,-190.843)"><g transform="matrix(0.294842,0,0,0.294842,205.479,187.997)"><path d="M135.72,44.03C202.216,93.951 273.74,195.17 300,249.49C326.262,195.174 397.782,93.95 464.28,44.03C512.26,8.009 590,-19.862 590,68.825C590,86.537 579.845,217.615 573.889,238.895C553.186,312.879 477.745,331.749 410.639,320.328C527.939,340.292 557.779,406.42 493.336,472.548C370.946,598.138 317.426,441.037 303.706,400.782C301.192,393.402 300.016,389.95 299.998,392.886C299.981,389.95 298.805,393.402 296.291,400.782C282.577,441.037 229.058,598.142 106.661,472.548C42.217,406.42 72.056,340.288 189.358,320.328C122.25,331.749 46.808,312.879 26.108,238.895C20.151,217.613 9.997,86.535 9.997,68.825C9.997,-19.862 87.739,8.009 135.717,44.03L135.72,44.03Z" style="fill:rgb(240,240,240);fill-rule:nonzero;"/></g></g></svg>
